X: 4
T: Binks's Waltz
C: Scott Joplin
%%abc-version 2.0
%%abcx-abcm2ps-target-version 5.9.1 (29 Sep 2008)
%%abc-creator hum2abc beta
%%abcx-conversion-date 2021/07/20 09:00:56
%%abc-copyright 2021 Craig Stuart Sapp
%%abc-edited-by Craig Stuart Sapp
%%abc-edited-by Craig Stuart Sapp
%%abcx-initial-encoding-date 2005/02/04
%%humdrum-veritas 300731057
%%humdrum-veritas-data 3842424496
%%removed 0's from note length
%%linebreak <none>
%%barnumbers 0
L: 1/4
M: 3/4
N: Derived from binks.krn
Q: "Andante. [quarter]=144." 1/4=132
%%staves {1 2}
V: 1 clef=treble
V: 2 clef=bass
K: Bb
[V:1] B,/D/^C/D/F/G/ | 
[V:2] B,,/D,/^C,/D,/F,/G,/ | 
[V:1] B,/D/^C/D/F/G/ | 
[V:2] B,,/D,/^C,/D,/F,/G,/ | 
[V:1] B/B/B/B/B/B/ & [G2D2][EC] | 
[V:2] [G,2G,,2][_G,_G,,] | 
[V:1] A2F & [E2C2]z ]|:  
[V:2] [F,2F,,2]z ]|:  
[V:1] .B/.d/.d/.f/.f/.F/ | 
[V:2] B,,[DB,F,][DB,F,] | 
[V:1] G2F | 
[V:2] B,,/G,/B,/^C/D & B,,3 | 
[V:1] .B/.d/.d/.f/.f/.F/ | 
[V:2] B,,[DB,F,][DB,F,] | 
[V:1] G2F | 
[V:2] B,,/G,/B,/^C/D & B,,3 | 
[V:1] [g'e'g][g'3/e'3/g3/][_g'/e'/_g/] | 
[V:2] F,,[EA,F,][EA,F,] | 
[V:1] [f'e'f][c'c][^c'^c] | 
[V:2] F,,[EA,F,][EA,F,] | 
[V:1] [d'fd][beB][gBG] | 
[V:2] [B,,B,,,][G,G,,][E,E,,] | 
[V:1] [f2B2F2]F | 
[V:2] [D,D,,][DB,F,][DB,F,] | 
[V:1] .B/.d/.d/.f/.f/.F/ | 
[V:2] B,,[DB,F,][DB,F,] | 
[V:1] G2F | 
[V:2] B,,/G,/B,/^C/D & B,,3 | 
[V:1] .B/.d/.d/.f/.f/.d/ | 
[V:2] B,,[DB,F,][DB,F,] | 
[V:1] [d2^G2][cA] | 
[V:2] =B,,/F,/^G,/=B,/C | 
[V:1] [d'bd][d'3/b3/d3/][_d'/b/_d/] | 
[V:2] [C,C,,][=ECB,][ECB,] | 
[V:1] [c'bc][g'3/b3/g3/][a'/c'/a/] | 
[V:2] [C,C,,][=ECB,][ECB,] | 
[V:1] [f'3a3f3]- | 
[V:2] [F,F,,]C,A,, | 
[V:1] [f'af]GA & xE2 | 
[V:2] F,,zz | 
[V:1] .B/.d/.d/.f/.f/.F/ & Dzz | 
[V:2] B,,[DB,F,][DB,F,] | 
[V:1] G2F | 
[V:2] B,,/G,/B,/^C/D & B,,3 | 
[V:1] .B/.d/.d/.f/.f/.F/ | 
[V:2] B,,[DB,F,][DB,F,] | 
[V:1] G2F | 
[V:2] B,,/G,/B,/^C/D & B,,3 | 
[V:1] [g'e'g][g'3/e'3/g3/][_g'/e'/_g/] | 
[V:2] F,,[EA,F,][EA,F,] | 
[V:1] [f'e'f][c'c][^c'^c] | 
[V:2] F,,[EA,F,][EA,F,] | 
[V:1] [d'd]f/^c/d/A/ | 
[V:2] [B,,B,,,][DB,F,][DB,F,] | 
[V:1] B2F | 
[V:2] [D,D,,][DB,F,][DB,F,] | 
[V:1] _G/B/B/c/c/_G/ | 
[V:2] [E,E,,][EB,_G,][EB,G,] | 
[V:1] F2F | 
[V:2] [D,D,,][DB,F,][DB,F,] | 
[V:1] _G/B/B/c/c/_G/ | 
[V:2] [E,E,,][EB,_G,][EB,G,] | 
[V:1] F!accent![fB_A]!accent![eBG] | 
[V:2] [D,D,,]!accent![D,D,,]!accent![E,E,,] | 
[V:1] dB3/d/ & [B3F3] | 
[V:2] [F,F,,][DB,F,][DB,F,] | 
[V:1] [cA]c3/d/ & E[A2E2] |[1 
[V:2] [F,F,,][CA,F,][CA,F,] | 
[V:1] [B3D3]- | 
[V:2] [B,B,,]F,D, | 
[V:1] [BD]GA :|][2 
[V:2] B,,E,C, :|]  
[V:1] [B3D3]- | 
[V:2] [B,B,,]F,D, | 
[V:1] [BD][d'd][d'd] ]|: 
[V:2] B,,zz ]|:  
[V:1] [b'b][g'2g2] | 
[V:2] [G,,G,,,][DB,G,][DB,G,] | 
[V:1] [g'g][e'2e2] | 
[V:2] [C,C,,][ECA,G,][ECA,G,] | 
[V:1] [d'/d/][e'/e/][d'/d/][e'/e/][d'd] | 
[V:2] [D,D,,][DCA,^F,][DCA,F,] | 
[V:1] [d'/d/][e'/e/][d'/d/][e'/e/][d'd] | 
[V:2] [G,,G,,,][DB,G,][DB,G,] | 
[V:1] [b'b][g'2g2] | 
[V:2] [G,,G,,,][DB,G,][B,,B,,,] | 
[V:1] [a'a][^f'2^f2] | 
[V:2] [A,,A,,,][DA,^F,][DA,F,] | 
[V:1] [a'/a/][=b'/=b/][a'/a/][g'/g/][^f'/^f/][=e'/=e/] | 
[V:2] [A,,A,,,][^CA,G,][CA,G,] | 
[V:1] [d'3a3^f3d3] | 
[V:2] [D,/D,,/][_E,/_E,,/][D,/D,,/][C,/C,,/][B,,/B,,,/][A,,/A,,,/] | 
[V:1] [b'b][g'2g2] | 
[V:2] [G,,G,,,][DB,G,][DB,G,] | 
[V:1] [g'g][e'2e2] | 
[V:2] [C,C,,][ECA,G,][ECA,G,] | 
[V:1] [d'/d/][e'/e/][d'/d/][e'/e/][d'd] | 
[V:2] [D,D,,][DCA,^F,][DCA,F,] | 
[V:1] [d'/d/][e'/e/][d'/d/][e'/e/][d'd] | 
[V:2] [G,,G,,,][DB,G,][DB,G,] | 
[V:1] [e'e][g'2g2] | 
[V:2] [C,C,,][ECG,][ECG,] | 
[V:1] [d'd][g'2g2] | 
[V:2] [D,D,,][DB,G,][DB,G,] | 
[V:1] [d'/d/][e'/e/][d'/d/][c'/c/][b/B/][a/A/] |[1 
[V:2] [D,D,,][DCA,^F,][DCA,F,] | 
[V:1] [g/G/][a/A/][b/B/][c'/c/][d'/d/][g'/g/] :|][2 
[V:2] [D3B,3G,3] :|]  
[V:1] [g2G2]A || 
[V:2] [DB,][E2C2] & G,2=F, ||  
[V:1] .B/.d/.d/.f/.f/.F/ | 
[V:2] B,,[DB,F,][DB,F,] | 
[V:1] G2F | 
[V:2] B,,/G,/B,/^C/D & B,,3 | 
[V:1] .B/.d/.d/.f/.f/.F/ | 
[V:2] B,,[DB,F,][DB,F,] | 
[V:1] G2F | 
[V:2] B,,/G,/B,/^C/D & B,,3 | 
[V:1] [g'e'g][g'3/e'3/g3/][_g'/e'/_g/] | 
[V:2] F,,[EA,F,][EA,F,] | 
[V:1] [f'e'f][c'c][^c'^c] | 
[V:2] F,,[EA,F,][EA,F,] | 
[V:1] [d'fd][beB][gBG] | 
[V:2] [B,,B,,,][G,G,,][E,E,,] | 
[V:1] [f2B2F2]F | 
[V:2] [D,D,,][DB,F,][DB,F,] | 
[V:1] .B/.d/.d/.f/.f/.F/ | 
[V:2] B,,[DB,F,][DB,F,] | 
[V:1] G2F | 
[V:2] B,,/G,/B,/^C/D & B,,3 | 
[V:1] .B/.d/.d/.f/.f/.d/ | 
[V:2] B,,[DB,F,][DB,F,] | 
[V:1] [d2^G2][cA] | 
[V:2] =B,,/F,/^G,/=B,/C | 
[V:1] [d'bd][d'3/b3/d3/][_d'/b/_d/] | 
[V:2] [C,C,,][=ECB,][ECB,] | 
[V:1] [c'bc][g'3/b3/g3/][a'/c'/a/] | 
[V:2] [C,C,,][=ECB,][ECB,] | 
[V:1] [f'3a3f3]- | 
[V:2] [F,F,,]C,A,, | 
[V:1] [f'af]GA & xE2 | 
[V:2] F,,zz | 
[V:1] .B/.d/.d/.f/.f/.F/ & Dzz | 
[V:2] B,,[DB,F,][DB,F,] | 
[V:1] G2F | 
[V:2] B,,/G,/B,/^C/D & B,,3 | 
[V:1] .B/.d/.d/.f/.f/.F/ | 
[V:2] B,,[DB,F,][DB,F,] | 
[V:1] G2F | 
[V:2] B,,/G,/B,/^C/D & B,,3 | 
[V:1] [g'e'g][g'3/e'3/g3/][_g'/e'/_g/] | 
[V:2] F,,[EA,F,][EA,F,] | 
[V:1] [f'e'f][c'c][^c'^c] | 
[V:2] F,,[EA,F,][EA,F,] | 
[V:1] [d'd]f/^c/d/A/ | 
[V:2] [B,,B,,,][DB,F,][DB,F,] | 
[V:1] B2F | 
[V:2] [D,D,,][DB,F,][DB,F,] | 
[V:1] _G/B/B/c/c/_G/ | 
[V:2] [E,E,,][EB,_G,][EB,G,] | 
[V:1] F2F | 
[V:2] [D,D,,][DB,F,][DB,F,] | 
[V:1] _G/B/B/c/c/_G/ | 
[V:2] [E,E,,][EB,_G,][EB,G,] | 
[V:1] F!accent![fB_A]!accent![eBG] | 
[V:2] [D,D,,]!accent![D,D,,]!accent![E,E,,] | 
[V:1] dB3/d/ & [B3F3] | 
[V:2] [F,F,,][DB,F,][DB,F,] | 
[V:1] cc3/d/ & [AE][A2E2] | 
[V:2] [F,F,,][CA,F,][CA,F,] | 
[V:1] [B3D3]- | 
[V:2] [B,B,,]F,D, | 
[V:1] [BD][BB,][eE] ]|:  
[V:2] B,,zz ]|:  
[V:1]  [K:Eb] [g2e2G2][bgB] | 
[V:2]  [K:Eb] [E,E,,][EB,G,][EB,G,] | 
[V:1] [f/F/][g/G/][a/A/][b/B/][c'/c/][d'/d/] | 
[V:2] [D,D,,][DB,A,][DB,A,] | 
[V:1] [e'3g3e3] | 
[V:2] [C,C,,][ECG,][ECG,] | 
[V:1] [a3f3A3] | 
[V:2] [F,F,,][FCA,][FCA,] | 
[V:1] [a2d2A2][bdB] | 
[V:2] [B,,B,,,][DB,A,][DB,A,] | 
[V:1] [g2d2G2][fdF] | 
[V:2] [B,,B,,,][DB,A,][DB,A,] | 
[V:1] [^f3e3^F3] | 
[V:2] [E,E,,][EC=A,][ECA,] | 
[V:1] [g3e3G3] | 
[V:2] [E,E,,][EB,][EB,] | 
[V:1] [g2e2G2][bgB] | 
[V:2] [E,E,,][EB,G,][EB,G,] | 
[V:1] [f/F/][g/G/][a/A/][b/B/][c'/c/][d'/d/] | 
[V:2] [D,D,,][DB,A,][DB,A,] | 
[V:1] [e'3g3e3] | 
[V:2] [C,C,,][ECG,][ECG,] | 
[V:1] [c'afc][afcA][=a^fe=A] | 
[V:2] [A,,A,,,][C,C,,][_C,_C,,] | 
[V:1] [b2g2e2B2][c'gec] | 
[V:2] [B,,B,,,][EB,G,][EB,G,] | 
[V:1] xA2 & [adA][f3/F3/][b/B/] |[1 
[V:2] [B,,B,,,][DB,A,][DB,A,] | 
[V:1] [e3G3E3]- | 
[V:2] [E,E,,]B,,G,, | 
[V:1] [eGE][BB,][eE] :|][2 
[V:2] E,,zz :|]  
[V:1] [e3G3E3]- | 
[V:2] [E,E,,]B,,G,, | 
[V:1] [eGE]zF || 
[V:2] E,,zz ||  
[V:1]  [K:Bb] .B/.d/.d/.f/.f/.F/ | 
[V:2]  [K:Bb] B,,[DB,F,][DB,F,] | 
[V:1] G2F | 
[V:2] B,,/G,/B,/^C/D & B,,3 | 
[V:1] .B/.d/.d/.f/.f/.F/ | 
[V:2] B,,[DB,F,][DB,F,] | 
[V:1] G2F | 
[V:2] B,,/G,/B,/^C/D & B,,3 | 
[V:1] [g'e'g][g'3/e'3/g3/][_g'/e'/_g/] | 
[V:2] F,,[EA,F,][EA,F,] | 
[V:1] [f'e'f][c'c][^c'^c] | 
[V:2] F,,[EA,F,][EA,F,] | 
[V:1] [d'fd][beB][gBG] | 
[V:2] [B,,B,,,][G,G,,][E,E,,] | 
[V:1] [f2B2F2]F | 
[V:2] [D,D,,][DB,F,][DB,F,] | 
[V:1] .B/.d/.d/.f/.f/.F/ | 
[V:2] B,,[DB,F,][DB,F,] | 
[V:1] G2F | 
[V:2] B,,/G,/B,/^C/D & B,,3 | 
[V:1] .B/.d/.d/.f/.f/.d/ | 
[V:2] B,,[DB,F,][DB,F,] | 
[V:1] [d2^G2][cA] | 
[V:2] =B,,/F,/^G,/=B,/C | 
[V:1] [d'bd][d'3/b3/d3/][_d'/b/_d/] | 
[V:2] [C,C,,][=ECB,][ECB,] | 
[V:1] [c'bc][g'3/b3/g3/][a'/c'/a/] | 
[V:2] [C,C,,][=ECB,][ECB,] | 
[V:1] [f'3a3f3]- | 
[V:2] [F,F,,]C,A,, | 
[V:1] xGA & [f'af]E2 | 
[V:2] F,,zz | 
[V:1] .B/.d/.d/.f/.f/.F/ & Dzz | 
[V:2] B,,[DB,F,][DB,F,] | 
[V:1] G2F | 
[V:2] B,,/G,/B,/^C/D & B,,3 | 
[V:1] .B/.d/.d/.f/.f/.F/ | 
[V:2] B,,[DB,F,][DB,F,] | 
[V:1] G2F | 
[V:2] B,,/G,/B,/^C/D & B,,3 | 
[V:1] [g'e'g][g'3/e'3/g3/][_g'/e'/_g/] | 
[V:2] F,,[EA,F,][EA,F,] | 
[V:1] [f'e'f][c'c][^c'^c] | 
[V:2] F,,[EA,F,][EA,F,] | 
[V:1] [d'd]f/^c/d/A/ | 
[V:2] [B,,B,,,][DB,F,][DB,F,] | 
[V:1] B2F | 
[V:2] [D,D,,][DB,F,][DB,F,] | 
[V:1] _G/B/B/c/c/_G/ | 
[V:2] [E,E,,][EB,_G,][EB,G,] | 
[V:1] F2F | 
[V:2] [D,D,,][DB,F,][DB,F,] | 
[V:1] _G/B/B/c/c/_G/ | 
[V:2] [E,E,,][EB,_G,][EB,G,] | 
[V:1] F!accent![fB_A]!accent![eBG] | 
[V:2] [D,D,,]!accent![D,D,,]!accent![E,E,,] | 
[V:1] dB3/d/ & [B2F2]x | 
[V:2] [F,F,,][DB,F,][DB,F,] | 
[V:1] cc3/d/ & [AE][A2E2] | 
[V:2] [F,F,,][C2A,2F,2] | 
[V:1] [B/D/]d/d/f/f/b/ | 
[V:2] [B,,/B,/]F/F/B/B/d/ | 
[V:1] b/d'/d'/f'/f'/b'/ | 
[V:2] d/f/f/b/b/d'/ | 
[V:1] b'/ z/z[feA] | 
[V:2] d'/ x/x[FF,] | 
[V:1] [bfdB]zz | 
[V:2] [B,B,,]zz | 
[V:1] [d''b'f'd']zz | 
[V:2] [fdB]zz | 
[V:1] [bfdB]zz | 
[V:2] [FDB,]zz | 
[V:1] [B3_G3E3B,3] | 
[V:2] [E,,3E,,,3] | 
[V:1] [B3F3D3B,3] |]  
[V:2] [B,,3B,,,3] |]  


